src/assets/gender.svg

<svg fill="none" height="262" viewBox="0 0 262 262" width="262" xmlns="http://www.w3.org/2000/svg"><g stroke="#fff"><path d="m131.03 130.996v-129.996c71.794 0 129.996 58.2013 129.996 129.996 0 71.795-58.202 129.996-129.996 129.996-11.999 0-23.94-1.661-35.4832-4.936z" fill="#67c587"/><path d="m131.03 130.998-35.4832 125.06c-69.0687-19.597-109.1738-91.474-89.57719-160.5429 10.41919-36.7227 36.45199-67.01 71.19269-82.8276z" fill="#eaf6ed"/><path d="m131.029 130.997-53.8668-118.3102c7.6876-3.50013 15.6979-6.24269 23.9178-8.18875z" fill="#c9ead4"/><path d="m131.029 130.998-29.949-126.49915c6.627-1.56897 13.367-2.61477 20.157-3.12776z" fill="#a9deba"/><path d="m131.029 130.998-9.792-129.62728c1.629-.12306 3.26-.2154 4.893-.27697z" fill="#88d1a1"/><path d="m131.03 130.996-4.9-129.90363c1.632-.06158 3.266-.09237 4.9-.09237z" fill="#59aa76"/></g></svg>

<svg width="262" height="262" viewBox="0 0 262 262" fill="none" xmlns="http://www.w3.org/2000/svg">
<path d="M131.03 130.996V1C202.824 1 261.026 59.2013 261.026 130.996C261.026 202.791 202.824 260.992 131.03 260.992C119.031 260.992 107.09 259.331 95.5468 256.056L131.03 130.996Z" fill="#67C587" stroke="white"/>
<path d="M131.03 130.998L95.5468 256.058C26.4781 236.461 -13.627 164.584 5.96961 95.5151C16.3888 58.7924 42.4216 28.5051 77.1623 12.6875L131.03 130.998Z" fill="#EAF6ED" stroke="white"/>
<path d="M131.029 130.997L77.1622 12.6868C84.8498 9.18667 92.8601 6.44411 101.08 4.49805L131.029 130.997Z" fill="#C9EAD4" stroke="white"/>
<path d="M131.029 130.998L101.08 4.49885C107.707 2.92988 114.447 1.88408 121.237 1.37109L131.029 130.998Z" fill="#A9DEBA" stroke="white"/>
<path d="M131.029 130.998L121.237 1.37072C122.866 1.24766 124.497 1.15532 126.13 1.09375L131.029 130.998Z" fill="#88D1A1" stroke="white"/>
<path d="M131.03 130.996L126.13 1.09237C127.762 1.03079 129.396 1 131.03 1V130.996Z" fill="#59AA76" stroke="white"/></svg>
